packages/synapse-interface/assets/chains/aurora.svg

<svg fill="none" height="48" viewBox="0 0 48 48" width="48" xmlns="http://www.w3.org/2000/svg" xmlns:xlink="http://www.w3.org/1999/xlink"><linearGradient id="a" gradientUnits="userSpaceOnUse" x1="48" x2="0" y1="0" y2="48"><stop offset="0" stop-color="#95e141"/><stop offset="1" stop-color="#3c9a2c"/></linearGradient><rect fill="url(#a)" height="48" rx="24" width="48"/><path d="m24.0005 9.792c.6192-.00196 1.2266.16944 1.7534.4948.5268.3254.9521.7917 1.2276 1.3462l9.375 18.75c.2544.5082.3746 1.073.3492 1.6408-.0253.5677-.1955 1.1195-.4942 1.603s-.7161.8826-1.2124 1.1593c-.4964.2768-1.0553.422-1.6236.4219h-18.75c-.5682-.0001-1.127-.1454-1.6232-.4222-.4963-.2768-.9135-.6759-1.2121-1.1594s-.4686-1.0352-.4939-1.6029c-.0254-.5677.0949-1.1324.3492-1.6405l9.374-18.75c.2755-.5545.7008-1.0208 1.2276-1.3462.5268-.32536 1.1342-.49676 1.7534-.4948m0-2.292c-1.0445-.0001-2.0683.29059-2.9569.83952-.8885.54894-1.6067 1.33442-2.0741 2.26848l-9.37494 18.75c-.42912.8576-.63185 1.8107-.58892 2.7688.04292.958.33008 1.8892.83418 2.705.50408.8158 1.20838 1.4892 2.04598 1.9562s1.7807.7121 2.7397.712h18.75c.9589-.0001 1.9018-.2453 2.7393-.7124.8375-.467 1.5417-1.1404 2.0456-1.9562.504-.8158.7911-1.7469.834-2.7049.0429-.9579-.1599-1.9109-.589-2.7685l-9.3739-18.75c-.4674-.93406-1.1856-1.71954-2.0741-2.26848-.8886-.54893-1.9125-.83962-2.9569-.83952z" fill="#fff"/></svg>

<svg width="48" height="48" viewBox="0 0 48 48" fill="none" xmlns="http://www.w3.org/2000/svg">
<rect width="48" height="48" rx="24" fill="url(#paint0_linear_1275_22499)"/>
<path d="M24.0005 9.792C24.6197 9.79004 25.2271 9.96144 25.7539 10.2868C26.2807 10.6122 26.706 11.0785 26.9815 11.633L36.3565 30.383C36.6109 30.8912 36.7311 31.456 36.7057 32.0238C36.6804 32.5915 36.5102 33.1433 36.2115 33.6268C35.9128 34.1103 35.4954 34.5094 34.9991 34.7861C34.5027 35.0629 33.9438 35.2081 33.3755 35.208H14.6255C14.0573 35.2079 13.4985 35.0626 13.0023 34.7858C12.506 34.509 12.0888 34.1099 11.7902 33.6264C11.4916 33.1429 11.3216 32.5912 11.2963 32.0235C11.2709 31.4558 11.3912 30.8911 11.6455 30.383L21.0195 11.633C21.295 11.0785 21.7203 10.6122 22.2471 10.2868C22.7739 9.96144 23.3813 9.79004 24.0005 9.792M24.0005 7.5C22.956 7.4999 21.9322 7.79059 21.0436 8.33952C20.1551 8.88846 19.4369 9.67394 18.9695 10.608L9.59456 29.358C9.16544 30.2156 8.96271 31.1687 9.00564 32.1268C9.04856 33.0848 9.33572 34.016 9.83982 34.8318C10.3439 35.6476 11.0482 36.321 11.8858 36.788C12.7234 37.255 13.6665 37.5001 14.6255 37.5H33.3755C34.3344 37.4999 35.2773 37.2547 36.1148 36.7876C36.9523 36.3206 37.6565 35.6472 38.1604 34.8314C38.6644 34.0156 38.9515 33.0845 38.9944 32.1265C39.0373 31.1686 38.8345 30.2156 38.4054 29.358L29.0315 10.608C28.5641 9.67394 27.8459 8.88846 26.9574 8.33952C26.0688 7.79059 25.0449 7.4999 24.0005 7.5V7.5Z" fill="white"/>
<defs>
<linearGradient id="paint0_linear_1275_22499" x1="48" y1="-2.86102e-06" x2="2.86102e-06" y2="48" gradientUnits="userSpaceOnUse">
<stop stop-color="#95E141"/>
<stop offset="1" stop-color="#3C9A2C"/>
</linearGradient>
</defs>
</svg>
